X:1141
T:Paddy o' Blarney.
M:6/8
L:1/8
Q:3/8=120
Z:Jack Campin * www.campin.me.uk * 2009
K:D
d   |d>ed dcB|ABc def|efg a2a|f2d z2!
d   |d>ed dcB|ABc def|efg a2a|f2d z2!
f   |g>ag gBB|BAA A2d|dcd efg|agf e2!
f/e/|d>ed dcB|ABc def|efg aga|f2d z2|]
<end>
<start>
